X: 761
T: Ferayidir Gızın Adı
C: (Anonim)
O: Turkey
F: http://compmusic.upf.edu/node/140
N: neveser--turku--aksak--ferayi--
N: makam= neveser
N: form= turku
N: usul= aksak = 9/8
M: 9/8
L: 1/16
K: C _7/8B _7/8e ^f ^c
Q: 1/4=72
%%MIDI tuningsystem comma53
z12D2D2 G4G2G2 G8 z4 | A4 B3A(3B2A2B2 {c}d3cB3A G4G4 A2B2A2B2  | 
w:  Fe ra *  yi dir   |  gı *  *  *  *  *  *  zın_ *  a *  *  dı   | 
G4G2F2 Gd3d4 d4z4 {f}e4d4 c4 | {d}c2BA B4{A}B2B6{A}d4 d2c2d3c cBBAG2z2  | 
w:  *  *  *  Fe *  ra ye  de   |  *  yan dım_ *  *  *  a man   *  Es me ri  yâ *  rim  *  *  *  de   | 
D2G4G2 A2BA(3G2F2A2 G8 D4G2F2 G4 | \
w:  a man  da  Fe ra *  *  *  *  yi    | 
G4 G2G2D3G G2G2A2BA GFG2G12  | 
w:  *  *  *  Türk *  men  de  gı *  *  *  *  *  zı   | 
A2B6 A2B2{e}d3c B3AG4 G4A2B2 A2B2 | \
w:  ka *  *  *  *  tar *  la *  *  mış   | 
G4 G2G2Gd3 d4d8{f}e4 d4c4  | 
w:  *  *  *  ma *  ya yı   *  Öf   | 
c3AB2B2 {A}B2BAB2z2 BAB2cd2c {d}c4BAGF G2z2 | 
w:  yâr  *  yan dım_ *  a man  *  *  es *  *  mer  *  *  *  yâ rim  *  *  *  de    | 
F2G4G2A2BA GFG2G8D4 d4d4  | d3dd2dc B3BB2AB c3cBAB2 {e}d2c2B3A G4 | 
w:  A man  da  ma ya *  *  *  *  yı    |  Nin ni  nin na  *  nin ni  nin na  *  nin ni  nin *  *  *  nin  na nay *  nam    | 
DDGG G2G2(3A2B2A2 GF3G8z12  | |


